X:60
T:Merry, Merry Milkmaids. (p)1651.PLFD1.060
T:Merry Milkmaids in Green. (p)1651.PLFD1.060
M:6/4
L:1/4
Q:3/4=90
S:Playford, Dancing Master,1st Ed.,1651.
O:England;London
H:1651.
Z:Chris Partington.
K:C
c|c>dc G2 g|e3-e2 c|c>dc G2 _B|A3-A2F|
F3/2G/A/B/ c2 d| d>cB/2A/2 G2 g |e>fg d2 c| c3-c2:|
|:c|e>fg g>ag|e>fg g>fe| f2 g a2 b |c'3- c'2 g|
c'2g e>fg|a2fd>ef|g2 e c>de| d2 B G>AB| c2c A>Bc | d2c B>AG| e>fg d2 c| c3-c3:|
